X:1
T:Title
%%score { ( 1 3 ) | 2 }
L:1/8
Q:1/4=100
M:4/4
K:Eb
V:1 treble nm="Grand Piano"
V:3 treble 
V:2 bass 
V:1
 G>G GG G[GB][GB][Ac] | [GB][B,EG][B,E][B,DF] [B,EG]3 [EB] | [DB]>[DA] [DA][DF] [FA]GGG | %3
w: John~R.~Sweney * * * * * * *|||
[M:9/8] z3 z3 z B2 |[M:4/4] G[GB][Ge][Ac] [GB]2 [GB]>[FA] | [EG][GB][Ge][Ac] [GB]4 | %6
w: |||
 c>c c[Ad] [Ge][Ge][B,EB][CFA] | [EG]2 [A,DF]2 [G,E]4 | %8
w: ||
 [EGB]>[EGB] [B,EG][B,FA] [EGB][Ge][Bd][Ac] | [EGB]2 [DAc]2 [DFA]4 | %10
w: ||
 [DFA]>[DFA] [DF][EG] [FA][Bd][Ac][GB] |[M:9/8] [DFA]2 [B,DB]- [B,DB] [B,EG]2- [B,EG][GB]>[FA] | %12
w: ||
[M:4/4] [EG][GB][Ge][Ac] [GB]2 [GB]>[FA] | [EG][GB][Ge][Ac] [GB]4 | c>c c[Ad] [Ge][Ge]BA | %15
w: |||
[M:8/4] G2 [DF]2 E4 z8 |] %16
w: |
V:2
 [E,B,E]>[E,B,E] [E,B,E][E,B,E] [E,B,E][E,E][E,E][E,E] | [E,E]E,G,,B,, E,3 [E,G,] | %2
 [B,,F,]>[B,,F,] [B,,B,][B,,B,] [E,B,][E,B,E][E,B,E][E,B,E] | %3
[M:9/8] [F,=A,E]>[F,A,E][F,A,E] [F,A,C] [B,,B,]2- [B,,B,] [B,,B,]2 | %4
[M:4/4] [E,B,E][E,B,][E,B,][E,E] [E,E]2 [E,E]2 | [E,B,][E,B,][E,B,][E,E] [E,E]4 | %6
 [A,EA]>[A,EA] [A,EA][K:bass][F,B,] [E,B,][E,B,]G,A, | B,2 B,,2 E,4 | %8
 E,>E, E,E, E,[E,B,][E,E][E,E] | B,2 B,2 B,4 | %10
 B,,>B,, [B,,B,][B,,B,] [B,,B,][B,,B,][B,,B,][B,,B,] |[M:9/8] B,,2 B,,- B,, E,2- E, [E,E]2 | %12
[M:4/4] [E,B,][E,B,][E,B,][E,E] [E,E]2 [E,E]2 | [E,B,][E,B,][E,B,][E,E] [E,E]4 | %14
 [A,EA]>[A,EA] [A,EA][K:bass][F,B,] [E,B,][E,B,][K:treble][G,B,E][A,CF] | %15
[M:8/4][K:bass] [B,E]2 [B,,A,]2 [E,G,]4 z8 |] %16
V:3
 x8 | x8 | x8 |[M:9/8] G>FF E [DF]2- [DF]D->[DA] |[M:4/4] x8 | x8 | x8 | x8 | x8 | x8 | x8 | %11
[M:9/8] x9 |[M:4/4] x8 | x8 | x8 |[M:8/4] x16 |] %16

